; generated by PrusaSlicer 2.2.0+linux-x64 on 2022-01-22 at 16:09:25 UTC

; 

; external perimeters extrusion width = 0.45mm
; perimeters extrusion width = 0.45mm
; infill extrusion width = 0.45mm
; solid infill extrusion width = 0.45mm
; top infill extrusion width = 0.40mm
; first layer extrusion width = 0.42mm

M73 P0 R40
M73 Q0 S41
M201 X1000 Y1000 Z1000 E5000 ; sets maximum accelerations, mm/sec^2
M203 X200 Y200 Z12 E120 ; sets maximum feedrates, mm/sec
M204 P1250 R1250 T1250 ; sets acceleration (P, T) and retract acceleration (R), mm/sec^2
M205 X8.00 Y8.00 Z0.40 E4.50 ; sets the jerk limits, mm/sec
M205 S0 T0 ; sets the minimum extruding and travel feed rate, mm/sec
M107
M862.3 P "MK3" ; printer model check
M862.1 P0.4 ; nozzle diameter check
M115 U3.8.1 ; tell printer latest fw version
G90 ; use absolute coordinates
M83 ; extruder relative mode
M104 S215 ; set extruder temp
M140 S60 ; set bed temp
M190 S60 ; wait for bed temp
M109 S215 ; wait for extruder temp
G28 W ; home all without mesh bed level
G80 ; mesh bed leveling
G1 Y-3.0 F1000.0 ; go outside print area
G92 E0.0
G1 X60.0 E9.0 F1000.0 ; intro line
M73 Q0 S41
M73 P0 R40
G1 X100.0 E12.5 F1000.0 ; intro line
G92 E0.0
M221 S95
G21 ; set units to millimeters
G90 ; use absolute coordinates
M83 ; use relative distances for extrusion
M900 K30 ; Filament gcode
;BEFORE_LAYER_CHANGE
G92 E0.0
;0.2


G1 E-0.80000 F2100.00000
G1 Z0.600 F10800.000
;AFTER_LAYER_CHANGE
;0.2
G1 X93.287 Y73.352
G1 Z0.200
G1 E0.80000 F2100.00000
M204 S1000
G1 F1200.000
G1 X94.055 Y72.819 E0.02931
G1 X94.972 Y72.623 E0.02942
G1 X155.004 Y72.623 E1.88225
G1 X155.899 Y72.799 E0.02860
G1 X156.662 Y73.300 E0.02860
G1 X157.178 Y74.048 E0.02849
G1 X157.376 Y74.938 E0.02860
G1 X157.377 Y135.027 E1.88404
G1 X157.199 Y135.902 E0.02802
G1 X156.713 Y136.648 E0.02790
G1 X155.935 Y137.185 E0.02966
G1 X155.005 Y137.377 E0.02977
G1 X94.973 Y137.377 E1.88225
G1 X94.098 Y137.199 E0.02802
G1 X93.352 Y136.713 E0.02790
G1 X92.815 Y135.935 E0.02966
G1 X92.623 Y135.005 E0.02977
G1 X92.623 Y74.973 E1.88225
G1 X92.801 Y74.098 E0.02802
G1 X93.254 Y73.402 E0.02602
G1 F8640.000
G1 X94.055 Y72.819 E-0.22872
G1 X94.972 Y72.623 E-0.21669
G1 X96.335 Y72.623 E-0.31460
G1 E-0.04000 F2100.00000
G1 Z0.800 F10800.000
G1 X95.787 Y75.787
G1 Z0.200
G1 E0.80000 F2100.00000
G1 F1200.000
G1 X154.213 Y75.787 E1.83190
G1 X154.213 Y134.213 E1.83190
G1 X95.787 Y134.213 E1.83190
G1 X95.787 Y75.847 E1.83002
G1 X95.410 Y75.410 F10800.000
G1 F1200.000
G1 X154.590 Y75.410 E1.85555
G1 X154.590 Y134.590 E1.85555
G1 X95.410 Y134.590 E1.85555
G1 X95.410 Y75.470 E1.85367
G1 X95.796 Y75.514 F10800.000
G1 F8640.000
G1 X98.701 Y75.467 E-0.76000
G1 E-0.04000 F2100.00000
G1 Z0.800 F10800.000
G1 X154.100 Y76.664
G1 Z0.200
G1 E0.80000 F2100.00000
G1 F1200.000
G1 X153.506 Y76.070 E0.02639
G1 X152.971 Y76.070 E0.01678
G1 X153.930 Y77.029 E0.04259
G1 X153.930 Y77.563 E0.01678
G1 X152.437 Y76.070 E0.06633
G1 X151.903 Y76.070 E0.01678
G1 X153.930 Y78.097 E0.09006
G1 X153.930 Y78.631 E0.01678
G1 X151.369 Y76.070 E0.11380
G1 X150.834 Y76.070 E0.01678
G1 X153.930 Y79.166 E0.13754
G1 X153.930 Y79.700 E0.01678
G1 X150.300 Y76.070 E0.16127
G1 X149.766 Y76.070 E0.01678
G1 X153.930 Y80.234 E0.18501
G1 X153.930 Y80.769 E0.01678
G1 X149.231 Y76.070 E0.20875
G1 X148.697 Y76.070 E0.01678
G1 X153.930 Y81.303 E0.23248
G1 X153.930 Y81.837 E0.01678
G1 X148.163 Y76.070 E0.25622
G1 X147.629 Y76.070 E0.01678
G1 X153.930 Y82.371 E0.27996
G1 X153.930 Y82.906 E0.01678
G1 X147.094 Y76.070 E0.30369
G1 X146.560 Y76.070 E0.01678
G1 X153.930 Y83.440 E0.32743
G1 X153.930 Y83.974 E0.01678
G1 X146.026 Y76.070 E0.35116
G1 X145.491 Y76.070 E0.01678
G1 X153.930 Y84.509 E0.37490
G1 X153.930 Y85.043 E0.01678
G1 X144.957 Y76.070 E0.39864
G1 X144.423 Y76.070 E0.01678
G1 X153.930 Y85.577 E0.42237
G1 X153.930 Y86.111 E0.01678
G1 X143.889 Y76.070 E0.44611
G1 X143.354 Y76.070 E0.01678
G1 X153.930 Y86.646 E0.46985
G1 X153.930 Y87.180 E0.01678
G1 X142.820 Y76.070 E0.49358
G1 X142.286 Y76.070 E0.01678
G1 X153.930 Y87.714 E0.51732
G1 X153.930 Y88.249 E0.01678
G1 X141.751 Y76.070 E0.54105
G1 X141.217 Y76.070 E0.01678
G1 X153.930 Y88.783 E0.56479
G1 X153.930 Y89.317 E0.01678
G1 X140.683 Y76.070 E0.58853
G1 X140.149 Y76.070 E0.01678
G1 X153.930 Y89.851 E0.61226
G1 X153.930 Y90.386 E0.01678
G1 X139.614 Y76.070 E0.63600
G1 X139.080 Y76.070 E0.01678
G1 X153.930 Y90.920 E0.65974
G1 X153.930 Y91.454 E0.01678
G1 X138.546 Y76.070 E0.68347
G1 X138.011 Y76.070 E0.01678
G1 X153.930 Y91.989 E0.70721
G1 X153.930 Y92.523 E0.01678
G1 X137.477 Y76.070 E0.73095
M73 Q2 S40
M73 P2 R39
G1 X136.943 Y76.070 E0.01678
G1 X153.930 Y93.057 E0.75468
G1 X153.930 Y93.591 E0.01678
G1 X136.409 Y76.070 E0.77842
G1 X135.874 Y76.070 E0.01678
G1 X153.930 Y94.126 E0.80215
G1 X153.930 Y94.660 E0.01678
G1 X135.340 Y76.070 E0.82589
G1 X134.806 Y76.070 E0.01678
G1 X153.930 Y95.194 E0.84963
G1 X153.930 Y95.729 E0.01678
G1 X134.271 Y76.070 E0.87336
G1 X133.737 Y76.070 E0.01678
G1 X153.930 Y96.263 E0.89710
G1 X153.930 Y96.797 E0.01678
G1 X133.203 Y76.070 E0.92084
G1 X132.669 Y76.070 E0.01678
G1 X153.930 Y97.331 E0.94457
G1 X153.930 Y97.866 E0.01678
G1 X132.134 Y76.070 E0.96831
G1 X131.600 Y76.070 E0.01678
G1 X153.930 Y98.400 E0.99204
G1 X153.930 Y98.934 E0.01678
G1 X131.066 Y76.070 E1.01578
G1 X130.531 Y76.070 E0.01678
G1 X153.930 Y99.469 E1.03952
G1 X153.930 Y100.003 E0.01678
G1 X129.997 Y76.070 E1.06325
G1 X129.463 Y76.070 E0.01678
G1 X153.930 Y100.537 E1.08699
G1 X153.930 Y101.072 E0.01678
G1 X128.928 Y76.070 E1.11073
G1 X128.394 Y76.070 E0.01678
G1 X153.930 Y101.606 E1.13446
G1 X153.930 Y102.140 E0.01678
G1 X127.860 Y76.070 E1.15820
G1 X127.326 Y76.070 E0.01678
G1 X153.930 Y102.674 E1.18194
G1 X153.930 Y103.209 E0.01678
G1 X126.791 Y76.070 E1.20567
G1 X126.257 Y76.070 E0.01678
G1 X153.930 Y103.743 E1.22941
G1 X153.930 Y104.277 E0.01678
G1 X125.723 Y76.070 E1.25314
G1 X125.188 Y76.070 E0.01678
G1 X153.930 Y104.812 E1.27688
G1 X153.930 Y105.346 E0.01678
G1 X124.654 Y76.070 E1.30062
G1 X124.120 Y76.070 E0.01678
G1 X153.930 Y105.880 E1.32435
G1 X153.930 Y106.414 E0.01678
G1 X123.586 Y76.070 E1.34809
G1 X123.051 Y76.070 E0.01678
G1 X153.930 Y106.949 E1.37183
G1 X153.930 Y107.483 E0.01678
G1 X122.517 Y76.070 E1.39556
G1 X121.983 Y76.070 E0.01678
G1 X153.930 Y108.017 E1.41930
G1 X153.930 Y108.552 E0.01678
G1 X121.448 Y76.070 E1.44303
G1 X120.914 Y76.070 E0.01678
G1 X153.930 Y109.086 E1.46677
G1 X153.930 Y109.620 E0.01678
G1 X120.380 Y76.070 E1.49051
G1 X119.846 Y76.070 E0.01678
G1 X153.930 Y110.154 E1.51424
M73 Q5 S39
M73 P5 R38
G1 X153.930 Y110.689 E0.01678
G1 X119.311 Y76.070 E1.53798
G1 X118.777 Y76.070 E0.01678
G1 X153.930 Y111.223 E1.56172
G1 X153.930 Y111.757 E0.01678
G1 X118.243 Y76.070 E1.58545
G1 X117.708 Y76.070 E0.01678
G1 X153.930 Y112.292 E1.60919
G1 X153.930 Y112.826 E0.01678
G1 X117.174 Y76.070 E1.63293
G1 X116.640 Y76.070 E0.01678
G1 X153.930 Y113.360 E1.65666
G1 X153.930 Y113.894 E0.01678
G1 X116.106 Y76.070 E1.68040
G1 X115.571 Y76.070 E0.01678
G1 X153.930 Y114.429 E1.70413
G1 X153.930 Y114.963 E0.01678
G1 X115.037 Y76.070 E1.72787
G1 X114.503 Y76.070 E0.01678
G1 X153.930 Y115.497 E1.75161
G1 X153.930 Y116.032 E0.01678
G1 X113.968 Y76.070 E1.77534
G1 X113.434 Y76.070 E0.01678
G1 X153.930 Y116.566 E1.79908
G1 X153.930 Y117.100 E0.01678
G1 X112.900 Y76.070 E1.82282
G1 X112.366 Y76.070 E0.01678
G1 X153.930 Y117.634 E1.84655
G1 X153.930 Y118.169 E0.01678
G1 X111.831 Y76.070 E1.87029
G1 X111.297 Y76.070 E0.01678
G1 X153.930 Y118.703 E1.89402
G1 X153.930 Y119.237 E0.01678
G1 X110.763 Y76.070 E1.91776
G1 X110.228 Y76.070 E0.01678
G1 X153.930 Y119.772 E1.94150
G1 X153.930 Y120.306 E0.01678
G1 X109.694 Y76.070 E1.96523
G1 X109.160 Y76.070 E0.01678
G1 X153.930 Y120.840 E1.98897
G1 X153.930 Y121.374 E0.01678
G1 X108.626 Y76.070 E2.01271
M73 Q7 S38
M73 P7 R37
G1 X108.091 Y76.070 E0.01678
G1 X153.930 Y121.909 E2.03644
G1 X153.930 Y122.443 E0.01678
G1 X107.557 Y76.070 E2.06018
G1 X107.023 Y76.070 E0.01678
G1 X153.930 Y122.977 E2.08392
G1 X153.930 Y123.512 E0.01678
G1 X106.488 Y76.070 E2.10765
G1 X105.954 Y76.070 E0.01678
G1 X153.930 Y124.046 E2.13139
G1 X153.930 Y124.580 E0.01678
G1 X105.420 Y76.070 E2.15512
G1 X104.886 Y76.070 E0.01678
G1 X153.930 Y125.114 E2.17886
G1 X153.930 Y125.649 E0.01678
G1 X104.351 Y76.070 E2.20260
G1 X103.817 Y76.070 E0.01678
G1 X153.930 Y126.183 E2.22633
G1 X153.930 Y126.717 E0.01678
G1 X103.283 Y76.070 E2.25007
G1 X102.748 Y76.070 E0.01678
G1 X153.930 Y127.252 E2.27381
G1 X153.930 Y127.786 E0.01678
G1 X102.214 Y76.070 E2.29754
G1 X101.680 Y76.070 E0.01678
G1 X153.930 Y128.320 E2.32128
G1 X153.930 Y128.854 E0.01678
G1 X101.146 Y76.070 E2.34501
G1 X100.611 Y76.070 E0.01678
G1 X153.930 Y129.389 E2.36875
G1 X153.930 Y129.923 E0.01678
G1 X100.077 Y76.070 E2.39249
G1 X99.543 Y76.070 E0.01678
G1 X153.930 Y130.457 E2.41622
M73 Q10 S37
M73 P10 R36
G1 X153.930 Y130.992 E0.01678
G1 X99.008 Y76.070 E2.43996
G1 X98.474 Y76.070 E0.01678
G1 X153.930 Y131.526 E2.46370
G1 X153.930 Y132.060 E0.01678
G1 X97.940 Y76.070 E2.48743
G1 X97.406 Y76.070 E0.01678
G1 X153.930 Y132.594 E2.51117
G1 X153.930 Y133.129 E0.01678
G1 X96.871 Y76.070 E2.53491
G1 X96.337 Y76.070 E0.01678
G1 X153.930 Y133.663 E2.55864
G1 X153.930 Y133.930 E0.00839
G1 X153.663 Y133.930 E0.00839
G1 X96.070 Y76.337 E2.55864
G1 X96.070 Y76.871 E0.01678
G1 X153.129 Y133.930 E2.53490
G1 X152.594 Y133.930 E0.01678
G1 X96.070 Y77.406 E2.51117
G1 X96.070 Y77.940 E0.01678
G1 X152.060 Y133.930 E2.48743
G1 X151.526 Y133.930 E0.01678
G1 X96.070 Y78.474 E2.46369
G1 X96.070 Y79.008 E0.01678
G1 X150.992 Y133.930 E2.43996
G1 X150.457 Y133.930 E0.01678
G1 X96.070 Y79.543 E2.41622
G1 X96.070 Y80.077 E0.01678
G1 X149.923 Y133.930 E2.39248
G1 X149.389 Y133.930 E0.01678
G1 X96.070 Y80.611 E2.36875
G1 X96.070 Y81.146 E0.01678
G1 X148.854 Y133.930 E2.34501
M73 Q12 S35
M73 P12 R35
G1 X148.320 Y133.930 E0.01678
G1 X96.070 Y81.680 E2.32127
G1 X96.070 Y82.214 E0.01678
G1 X147.786 Y133.930 E2.29754
G1 X147.251 Y133.930 E0.01678
G1 X96.070 Y82.749 E2.27380
G1 X96.070 Y83.283 E0.01678
G1 X146.717 Y133.930 E2.25007
G1 X146.183 Y133.930 E0.01678
G1 X96.070 Y83.817 E2.22633
G1 X96.070 Y84.351 E0.01678
G1 X145.649 Y133.930 E2.20259
G1 X145.114 Y133.930 E0.01678
G1 X96.070 Y84.886 E2.17886
G1 X96.070 Y85.420 E0.01678
G1 X144.580 Y133.930 E2.15512
G1 X144.046 Y133.930 E0.01678
G1 X96.070 Y85.954 E2.13138
G1 X96.070 Y86.489 E0.01678
G1 X143.511 Y133.930 E2.10765
G1 X142.977 Y133.930 E0.01678
G1 X96.070 Y87.023 E2.08391
G1 X96.070 Y87.557 E0.01678
G1 X142.443 Y133.930 E2.06018
G1 X141.909 Y133.930 E0.01678
G1 X96.070 Y88.091 E2.03644
G1 X96.070 Y88.626 E0.01678
G1 X141.374 Y133.930 E2.01270
G1 X140.840 Y133.930 E0.01678
G1 X96.070 Y89.160 E1.98897
G1 X96.070 Y89.694 E0.01678
G1 X140.306 Y133.930 E1.96523
G1 X139.771 Y133.930 E0.01678
G1 X96.070 Y90.229 E1.94149
G1 X96.070 Y90.763 E0.01678
G1 X139.237 Y133.930 E1.91776
M73 Q15 S34
M73 P15 R34
G1 X138.703 Y133.930 E0.01678
G1 X96.070 Y91.297 E1.89402
G1 X96.070 Y91.831 E0.01678
G1 X138.169 Y133.930 E1.87028
G1 X137.634 Y133.930 E0.01678
G1 X96.070 Y92.366 E1.84655
G1 X96.070 Y92.900 E0.01678
G1 X137.100 Y133.930 E1.82281
G1 X136.566 Y133.930 E0.01678
G1 X96.070 Y93.434 E1.79908
G1 X96.070 Y93.969 E0.01678
G1 X136.031 Y133.930 E1.77534
G1 X135.497 Y133.930 E0.01678
G1 X96.070 Y94.503 E1.75160
G1 X96.070 Y95.037 E0.01678
G1 X134.963 Y133.930 E1.72787
G1 X134.429 Y133.930 E0.01678
G1 X96.070 Y95.571 E1.70413
G1 X96.070 Y96.106 E0.01678
G1 X133.894 Y133.930 E1.68039
G1 X133.360 Y133.930 E0.01678
G1 X96.070 Y96.640 E1.65666
G1 X96.070 Y97.174 E0.01678
G1 X132.826 Y133.930 E1.63292
G1 X132.291 Y133.930 E0.01678
G1 X96.070 Y97.709 E1.60919
G1 X96.070 Y98.243 E0.01678
G1 X131.757 Y133.930 E1.58545
G1 X131.223 Y133.930 E0.01678
G1 X96.070 Y98.777 E1.56171
G1 X96.070 Y99.311 E0.01678
G1 X130.689 Y133.930 E1.53798
G1 X130.154 Y133.930 E0.01678
G1 X96.070 Y99.846 E1.51424
G1 X96.070 Y100.380 E0.01678
G1 X129.620 Y133.930 E1.49050
G1 X129.086 Y133.930 E0.01678
G1 X96.070 Y100.914 E1.46677
G1 X96.070 Y101.449 E0.01678
G1 X128.551 Y133.930 E1.44303
G1 X128.017 Y133.930 E0.01678
G1 X96.070 Y101.983 E1.41929
G1 X96.070 Y102.517 E0.01678
G1 X127.483 Y133.930 E1.39556
G1 X126.949 Y133.930 E0.01678
G1 X96.070 Y103.051 E1.37182
M73 Q17 S33
M73 P17 R33
G1 X96.070 Y103.586 E0.01678
G1 X126.414 Y133.930 E1.34809
G1 X125.880 Y133.930 E0.01678
G1 X96.070 Y104.120 E1.32435
G1 X96.070 Y104.654 E0.01678
G1 X125.346 Y133.930 E1.30061
G1 X124.811 Y133.930 E0.01678
G1 X96.070 Y105.189 E1.27688
G1 X96.070 Y105.723 E0.01678
G1 X124.277 Y133.930 E1.25314
G1 X123.743 Y133.930 E0.01678
G1 X96.070 Y106.257 E1.22940
G1 X96.070 Y106.791 E0.01678
G1 X123.209 Y133.930 E1.20567
G1 X122.674 Y133.930 E0.01678
G1 X96.070 Y107.326 E1.18193
G1 X96.070 Y107.860 E0.01678
G1 X122.140 Y133.930 E1.15820
G1 X121.606 Y133.930 E0.01678
G1 X96.070 Y108.394 E1.13446
G1 X96.070 Y108.929 E0.01678
G1 X121.071 Y133.930 E1.11072
G1 X120.537 Y133.930 E0.01678
G1 X96.070 Y109.463 E1.08699
G1 X96.070 Y109.997 E0.01678
G1 X120.003 Y133.930 E1.06325
G1 X119.469 Y133.930 E0.01678
G1 X96.070 Y110.531 E1.03951
G1 X96.070 Y111.066 E0.01678
G1 X118.934 Y133.930 E1.01578
G1 X118.400 Y133.930 E0.01678
G1 X96.070 Y111.600 E0.99204
G1 X96.070 Y112.134 E0.01678
G1 X117.866 Y133.930 E0.96830
G1 X117.331 Y133.930 E0.01678
G1 X96.070 Y112.669 E0.94457
G1 X96.070 Y113.203 E0.01678
G1 X116.797 Y133.930 E0.92083
G1 X116.263 Y133.930 E0.01678
G1 X96.070 Y113.737 E0.89710
G1 X96.070 Y114.271 E0.01678
G1 X115.729 Y133.930 E0.87336
G1 X115.194 Y133.930 E0.01678
G1 X96.070 Y114.806 E0.84962
G1 X96.070 Y115.340 E0.01678
G1 X114.660 Y133.930 E0.82589
G1 X114.126 Y133.930 E0.01678
G1 X96.070 Y115.874 E0.80215
G1 X96.070 Y116.409 E0.01678
G1 X113.591 Y133.930 E0.77841
G1 X113.057 Y133.930 E0.01678
G1 X96.070 Y116.943 E0.75468
G1 X96.070 Y117.477 E0.01678
G1 X112.523 Y133.930 E0.73094
G1 X111.989 Y133.930 E0.01678
G1 X96.070 Y118.011 E0.70721
G1 X96.070 Y118.546 E0.01678
G1 X111.454 Y133.930 E0.68347
G1 X110.920 Y133.930 E0.01678
G1 X96.070 Y119.080 E0.65973
G1 X96.070 Y119.614 E0.01678
G1 X110.386 Y133.930 E0.63600
G1 X109.851 Y133.930 E0.01678
G1 X96.070 Y120.149 E0.61226
G1 X96.070 Y120.683 E0.01678
G1 X109.317 Y133.930 E0.58852
G1 X108.783 Y133.930 E0.01678
G1 X96.070 Y121.217 E0.56479
G1 X96.070 Y121.751 E0.01678
G1 X108.249 Y133.930 E0.54105
G1 X107.714 Y133.930 E0.01678
G1 X96.070 Y122.286 E0.51731
G1 X96.070 Y122.820 E0.01678
G1 X107.180 Y133.930 E0.49358
G1 X106.646 Y133.930 E0.01678
G1 X96.070 Y123.354 E0.46984
G1 X96.070 Y123.889 E0.01678
G1 X106.111 Y133.930 E0.44611
G1 X105.577 Y133.930 E0.01678
G1 X96.070 Y124.423 E0.42237
G1 X96.070 Y124.957 E0.01678
G1 X105.043 Y133.930 E0.39863
G1 X104.509 Y133.930 E0.01678
G1 X96.070 Y125.491 E0.37490
G1 X96.070 Y126.026 E0.01678
G1 X103.974 Y133.930 E0.35116
G1 X103.440 Y133.930 E0.01678
G1 X96.070 Y126.560 E0.32742
M73 Q20 S32
M73 P20 R32
G1 X96.070 Y127.094 E0.01678
G1 X102.906 Y133.930 E0.30369
G1 X102.371 Y133.930 E0.01678
G1 X96.070 Y127.629 E0.27995
G1 X96.070 Y128.163 E0.01678
G1 X101.837 Y133.930 E0.25622
G1 X101.303 Y133.930 E0.01678
G1 X96.070 Y128.697 E0.23248
G1 X96.070 Y129.231 E0.01678
G1 X100.769 Y133.930 E0.20874
G1 X100.234 Y133.930 E0.01678
G1 X96.070 Y129.766 E0.18501
G1 X96.070 Y130.300 E0.01678
G1 X99.700 Y133.930 E0.16127
G1 X99.166 Y133.930 E0.01678
G1 X96.070 Y130.834 E0.13753
G1 X96.070 Y131.369 E0.01678
G1 X98.631 Y133.930 E0.11380
G1 X98.097 Y133.930 E0.01678
G1 X96.070 Y131.903 E0.09006
G1 X96.070 Y132.437 E0.01678
G1 X97.563 Y133.930 E0.06632
G1 X97.029 Y133.930 E0.01678
G1 X96.070 Y132.971 E0.04259
G1 X96.070 Y133.506 E0.01678
G1 X96.664 Y134.100 E0.02639
M106 S255
;BEFORE_LAYER_CHANGE
G92 E0.0
;0.4


G1 F8640.000
G1 X96.070 Y133.506 E-0.19398
G1 X96.070 Y132.971 E-0.12337
G1 X97.029 Y133.930 E-0.31304
G1 X97.563 Y133.930 E-0.12337
G1 X97.544 Y133.911 E-0.00624
G1 E-0.04000 F2100.00000
G1 Z0.800 F10800.000
;AFTER_LAYER_CHANGE
;0.4
G1 X92.815 Y135.935
G1 Z0.400
G1 E0.80000 F2100.00000
G1 F3000.000
G1 X92.623 Y135.005 E0.02977
